icons/luau-filled.svg

<svg xmlns="http://www.w3.org/2000/svg" width="256" height="256" fill="none"><rect width="256" height="256" fill="#00A2FF" rx="60"/><path fill="#00A2FF" d="M156 37h58v58h-58z"/><path fill="#00A2FF" d="M156 37h58v58h-58z"/><path fill="#fff" d="M156 37h58v58h-58zM45.993 222v-54.545h8.23v47.46h24.715V222zm67.609-16.966v-23.943h7.99V222h-7.83v-7.085h-.427q-1.412 3.276-4.527 5.46-3.09 2.158-7.697 2.158-3.942 0-6.978-1.732-3.01-1.757-4.741-5.193-1.705-3.436-1.705-8.496v-26.021h7.964v25.062q0 4.182 2.317 6.658t6.019 2.477q2.238 0 4.448-1.118 2.237-1.119 3.702-3.383 1.49-2.264 1.465-5.753m30.595 17.872q-3.888 0-7.031-1.439-3.143-1.464-4.981-4.234-1.81-2.77-1.811-6.792 0-3.462 1.332-5.7a9.83 9.83 0 0 1 3.595-3.542q2.264-1.305 5.061-1.971a50 50 0 0 1 5.699-1.012l5.966-.692q2.29-.293 3.329-.932 1.04-.64 1.039-2.078v-.186q0-3.489-1.971-5.407-1.944-1.917-5.806-1.917-4.022 0-6.339 1.784-2.29 1.758-3.169 3.915l-7.484-1.704q1.332-3.73 3.888-6.02a15.8 15.8 0 0 1 5.94-3.355q3.356-1.066 7.058-1.066 2.45 0 5.193.586a15.2 15.2 0 0 1 5.167 2.078q2.424 1.518 3.968 4.341 1.545 2.796 1.545 7.271V222h-7.777v-5.593h-.319q-.773 1.545-2.317 3.036t-3.969 2.477-5.806.986m1.731-6.393q3.303 0 5.646-1.305 2.371-1.305 3.596-3.409a8.84 8.84 0 0 0 1.252-4.554v-5.273q-.427.426-1.651.799-1.199.346-2.744.612-1.545.24-3.009.453-1.465.186-2.451.32-2.316.292-4.234.985-1.891.692-3.037 1.997-1.118 1.279-1.118 3.41 0 2.955 2.184 4.474 2.184 1.491 5.566 1.491m54.978-11.479v-23.943h7.99V222h-7.83v-7.085h-.426q-1.411 3.276-4.528 5.46-3.089 2.158-7.697 2.158-3.942 0-6.978-1.732-3.009-1.757-4.74-5.193-1.705-3.436-1.705-8.496v-26.021h7.963v25.062q0 4.182 2.318 6.658 2.316 2.477 6.019 2.477 2.237 0 4.448-1.118 2.237-1.119 3.702-3.383 1.491-2.264 1.464-5.753"/></svg>

<svg width="256" height="256" viewBox="0 0 256 256" fill="none" xmlns="http://www.w3.org/2000/svg">
<rect width="256" height="256" rx="60" fill="#00A2FF"/>
<rect x="156" y="37" width="58" height="58" fill="#00A2FF"/>
<rect x="156" y="37" width="58" height="58" fill="#00A2FF"/>
<rect x="156" y="37" width="58" height="58" fill="white"/>
<path d="M45.9925 222V167.455H54.2223V214.915H78.9382V222H45.9925ZM113.602 205.034V181.091H121.592V222H113.762V214.915H113.335C112.394 217.099 110.885 218.919 108.808 220.375C106.748 221.814 104.182 222.533 101.111 222.533C98.4828 222.533 96.1568 221.956 94.1326 220.801C92.1262 219.63 90.546 217.898 89.3919 215.608C88.2555 213.317 87.6873 210.485 87.6873 207.112V181.091H95.6507V206.153C95.6507 208.941 96.4231 211.16 97.9679 212.811C99.5126 214.463 101.519 215.288 103.987 215.288C105.479 215.288 106.961 214.915 108.435 214.17C109.926 213.424 111.16 212.297 112.137 210.787C113.131 209.278 113.619 207.36 113.602 205.034ZM144.197 222.906C141.605 222.906 139.261 222.426 137.166 221.467C135.071 220.491 133.41 219.079 132.185 217.233C130.978 215.386 130.374 213.122 130.374 210.441C130.374 208.133 130.818 206.233 131.706 204.741C132.594 203.25 133.792 202.069 135.301 201.199C136.811 200.329 138.497 199.672 140.362 199.228C142.226 198.784 144.126 198.447 146.061 198.216C148.512 197.932 150.5 197.701 152.027 197.524C153.554 197.328 154.664 197.018 155.356 196.592C156.049 196.165 156.395 195.473 156.395 194.514V194.328C156.395 192.002 155.738 190.2 154.424 188.921C153.128 187.643 151.193 187.004 148.618 187.004C145.937 187.004 143.824 187.598 142.279 188.788C140.752 189.96 139.696 191.265 139.11 192.703L131.626 190.999C132.514 188.513 133.81 186.506 135.514 184.979C137.237 183.435 139.217 182.316 141.454 181.624C143.691 180.913 146.044 180.558 148.512 180.558C150.145 180.558 151.876 180.754 153.705 181.144C155.552 181.517 157.274 182.21 158.872 183.222C160.488 184.234 161.811 185.681 162.84 187.563C163.87 189.427 164.385 191.851 164.385 194.834V222H156.608V216.407H156.289C155.774 217.437 155.001 218.449 153.972 219.443C152.942 220.437 151.619 221.263 150.003 221.92C148.387 222.577 146.452 222.906 144.197 222.906ZM145.928 216.513C148.13 216.513 150.012 216.078 151.574 215.208C153.155 214.338 154.353 213.202 155.17 211.799C156.005 210.379 156.422 208.861 156.422 207.245V201.972C156.138 202.256 155.587 202.522 154.771 202.771C153.972 203.001 153.057 203.206 152.027 203.383C150.997 203.543 149.994 203.694 149.018 203.836C148.041 203.96 147.224 204.067 146.567 204.156C145.023 204.351 143.611 204.679 142.333 205.141C141.072 205.603 140.06 206.268 139.296 207.138C138.551 207.991 138.178 209.127 138.178 210.548C138.178 212.518 138.906 214.01 140.362 215.022C141.818 216.016 143.673 216.513 145.928 216.513ZM200.906 205.034V181.091H208.896V222H201.066V214.915H200.64C199.699 217.099 198.19 218.919 196.112 220.375C194.053 221.814 191.487 222.533 188.415 222.533C185.787 222.533 183.461 221.956 181.437 220.801C179.431 219.63 177.851 217.898 176.697 215.608C175.56 213.317 174.992 210.485 174.992 207.112V181.091H182.955V206.153C182.955 208.941 183.728 211.16 185.273 212.811C186.817 214.463 188.824 215.288 191.292 215.288C192.783 215.288 194.266 214.915 195.74 214.17C197.231 213.424 198.465 212.297 199.442 210.787C200.436 209.278 200.924 207.36 200.906 205.034Z" fill="white"/>
</svg>
